X: 1069
T: Hisar Seyir
C: Şefik Gürmeriç
O: Turkey
F: http://compmusic.upf.edu/node/140
N: hisar--seyir--duyek--1--sefik_gurmeric
N: makam= hisar
N: form= seyir
N: usul= duyek = 8/4
M: 8/4
L: 1/16
K: C _1/4B   
Q: 1/4=120
%%MIDI tuningsystem comma53
e8 ^d4 e4  | fe f^g f2 e2 e8  | z2 e4 f2 ^g2 a2 =b2 c'2  | \
w:   |   |   | 
=b2 a2 a2 ^g2 a8  | 
w:   | 
z2 ^g4 c'2 =b2 a2 g4  | z2 a4 =b2 ^g2 f2 e4  | \
w:   |   | 
z2 =b2 a2 ^g2 g2 f2 f2 e2  | ^d2 e2 f^g fe e8  | 
w:   |   | 
z2 e4 ^f2 g6 f2  | a3g f3e d4 z4  | z2 c4 d2 e2 ^3/4f2 g2 a2  | \
w:   |   |   | 
g2 f2 e2 d2 ed c_2/4B c4  | 
w:   | 
z2 c2 _2/4B2 c2 d4 e4  | d2 c2 _2/4B2 A2 Ac BA G4  | \
w:   |   | 
A2 _2/4B2 c2 d2 e2 d2 d2 c2  | 
w:   | 
c2 _2/4B2 B2 A2 A8  | |


